svgs/duotone/kit-medical.svg

<svg xmlns="http://www.w3.org/2000/svg" viewBox="0 0 576 512"><!--! Font Awesome Pro 6.6.0 by @fontawesome - https://fontawesome.com License - https://fontawesome.com/license (Commercial License) Copyright 2024 Fonticons, Inc. --><path class="fa-secondary" style="fill:var(--fa-secondary-color,inherit);opacity:var(--fa-secondary-opacity,.4);" d="M96 32l32 0 0 448-32 0L96 32zm352 0l32 0 0 448-32 0 0-448z"/><path class="fa-primary" style="fill:var(--fa-primary-color,inherit);opacity:var(--fa-primary-opacity,1);" d="M64 32C28.7 32 0 60.7 0 96L0 416c0 35.3 28.7 64 64 64l32 0L96 32 64 32zm64 0l0 448 320 0 0-448L128 32zM512 480c35.3 0 64-28.7 64-64l0-320c0-35.3-28.7-64-64-64l-32 0 0 448 32 0zM256 176c0-8.8 7.2-16 16-16l32 0c8.8 0 16 7.2 16 16l0 48 48 0c8.8 0 16 7.2 16 16l0 32c0 8.8-7.2 16-16 16l-48 0 0 48c0 8.8-7.2 16-16 16l-32 0c-8.8 0-16-7.2-16-16l0-48-48 0c-8.8 0-16-7.2-16-16l0-32c0-8.8 7.2-16 16-16l48 0 0-48z"/></svg>

<svg xmlns="http://www.w3.org/2000/svg" viewBox="0 0 576 512"><!--! Font Awesome Pro 6.4.2 by @fontawesome - https://fontawesome.com License - https://fontawesome.com/license (Commercial License) Copyright 2023 Fonticons, Inc. --><path class="fa-primary" style="fill:var(--fa-primary-color,inherit);opacity:var(--fa-primary-opacity,1);" d="M64 32C28.7 32 0 60.7 0 96V416c0 35.3 28.7 64 64 64H96V32H64zm64 0V480H448V32H128zM512 480c35.3 0 64-28.7 64-64V96c0-35.3-28.7-64-64-64H480V480h32zM256 176c0-8.8 7.2-16 16-16h32c8.8 0 16 7.2 16 16v48h48c8.8 0 16 7.2 16 16v32c0 8.8-7.2 16-16 16H320v48c0 8.8-7.2 16-16 16H272c-8.8 0-16-7.2-16-16V288H208c-8.8 0-16-7.2-16-16V240c0-8.8 7.2-16 16-16h48V176z"/><path class="fa-secondary" style="fill:var(--fa-secondary-color,inherit);opacity:var(--fa-secondary-opacity,.4);" d="M96 480h32V32H96V480zM448 32V480h32V32H448z"/></svg>
